X:265
%%etbk:tnset id:80,pos:2,rep:3x,ant:
%%etbk:wsite http://www.thesession.org/tunes/display/1301
%%etbk:pldat 2016-03-17T18:05,2015-12-31T13:21,2015-12-29T17:35,2015-02-04T17:07,2015-01-18T11:43,2014-12-17T18:18,2014-05-19T18:33,2014-05-11T12:48,2014-04-30T17:07,2014-03-19T19:32,2014-02-14T16:17,2014-02-05T15:16,2013-08-28T17:14,2013-05-21T16:54
T: Trip To Athlone, The
Z: Piano Box Version by Martin Fleischmann
H: Created 2013-02-19 /  Last Modified 2013-02-19
M: 6/8
L: 1/8
R: jig
K: Dmix
|: "D"!3!ABA !1!D2!3!A | !5!d!4!c!3!A !3!A!2!G!1!E | !3!ABG !3!A!4!B!3!c | !4!d!1!AB !3!cd!5!e |
!3!A{B}AA !1!D2!3!A |  !5!dcA !3!AGE | "A"!2!GGG !1!A!3!d!4!e | "D"!5!f!3!d^c d3:|
|: "D"!5!fed !4!edc | !1!Add !2!^cd!4!e | !3!fed !2!efg | "A"!1!AB!3!c !1!def |
"G"!4!g!3!g!4!g !5!ag!2!e | !1!d!3!c!1!A !3!A!2!G!1!E | "A"!2!GGG !1!A!3!d!4!e | "D"!5!f!3!d^c d3:|


